!!!!SEGMENT: pl-kk--kk-i-382--002-002_anonim--nro-1-gloria.krn
!!!cenid: 18xx:1455
!!!COM: Anonim
!!!COM-rismID: pe30004985
!!!CDT:
!!!CNT:
!!!OPR: Nro 1
!!!OTL: Gloria
!!!OMV: 003
!!!PDT:
!!!AGN: Sacred
!!!SMS-siglum: PL-Kk
!!!SMS-shelfmark: Kk.I.382
!!!SMS-shelfwork: 001-003 M
!!!SMS-variant:
!!!SMS-altvar:
!!!NIFC-rismSourceID: 1001139072
!!!NIFC-islandoraID: pl-kk:6162
!!!URL-pdf-islandora: https://repozytorium.nifc.pl/islandora/object/pl-kk%3A6162/datastream/PDF/view
!!!URL-scan: https://polish.musicsources.pl/pl/lokalizacje/galeria/rekopisy/5994 @EN{Scan on Polish Music Sources Website} @PL{Skany w portalu Dziedzictwo Muzyki Polskiej w otwartym dostępie}
!!!ONB-nifc: UWAGA: obsada: S (T 1), T 2, A (B 1), B 2; S (T 1): skan 0004; A (B 1): skan 0147; T 2: skan 0074; B 2: skan 0219;
!!!AIN: 1 alto 1 bass 2 tenor
!!!key:
**kern	**text	**kern	**text	**kern	**text	**kern	**text
*part4	*part4	*part3	*part3	*part2	*part2	*part1	*part1
*staff4	*staff4	*staff3	*staff3	*staff2	*staff2	*staff1	*staff1
*Ibass	*	*Itenor	*	*Ialto	*	*Itenor	*
*I"Basso II	*	*I"Tenore II	*	*I"Alto vel Basso I	*	*I"Soprano vel. Tenore I.	*
*I'B 2	*	*I'T 2	*	*I'A (B 1)	*	*I'S (T 1)	*
*clefF4	*	*clefC4	*	*clefC3	*	*clefC1	*
*k[]	*	*k[]	*	*k[]	*	*k[]	*
*C:	*	*C:	*	*C:	*	*C:	*
*M3/2	*	*M3/2	*	*M3/2	*	*M3/2	*
=1	=1	=1	=1	=1	=1	=1	=1
*2\right	*	*2\right	*	*2\right	*	*2\right	*
*	*	*	*	*	*	*rscale:1/2	*
!	!	!	!	!	!	!LO:TX:t=P:problem=w źródle metrum 3/4, ale w pozostałych głosach 3/2	!
!LO:TX:t=P:problem=all\right&colon; global	!	!	!	!	!	!	!
!LO:TX:a:t=in C.	!	!LO:TX:t=P:problem=all\right&colon; global	!	!LO:TX:t=P:problem=all\right&colon; global	!	!LO:TX:t=P:problem=all\right&colon; global	!
!LO:TX:a:t=P:problem=w źródle "Gloria" zapisane przed pierwszym taktem, na pięciolinii	!	!LO:TX:a:t=P:problem=w źródle "Gloria" zapisane przed pierwszym taktem, na pięciolinii	!	!LO:TX:a:t=P:problem=w źródle "Gloria" zapisane przed pierwszym taktem, na pięciolinii	!	!LO:TX:a:t=P:problem=w źródle "Gloria" zapisane przed pierwszym taktem, na pięciolinii	!
!LO:TX:a:t=Gloria	!	!LO:TX:a:t=Gloria	!	!LO:TX:a:t=Gloria	!	!LO:TX:a:t=Gloria	!
4C\	Et	4c\	Et	4g\	Et	4ee\	Et
4D\	in	4B\	in	4g\	in	4dd\	in
4E\	ter-	4c\	ter-	4g\	ter-	4ee\	ter-
4F\	-ra	4B\	-ra	4g\	-ra	4dd\	-ra
4G\	pax	4c\	pax	4g\	pax	4ee\	pax
4G\	ho-	4B\	ho-	4g\	ho-	4dd\	ho-
=2	=2	=2	=2	=2	=2	=2	=2
2.c\	-mi-	2.G/	-mi-	2.g\	-mi-	2.ee\	-mi-
!LO:N:vis=8	!	!	!	!	!	!	!
4G\	-ni-	4c\	-ni-	4g\	-ni-	4ee\	-ni-
2C/	-bus	2c\	-bus	2g\	-bus	2ee\	-bus
=3	=3	=3	=3	=3	=3	=3	=3
4c\	bo-	4e\	bo-	4g\	bo-	4cc\	bo-
4B\	-ne	4d\	-ne	4g\	-ne	4dd\	-ne
4A\	vo-	4c\	vo-	4f#X\	vo-	4dd\	vo-
4B\	-lun-	4d\	-lun-	4g\	-lun-	4dd\	-lun-
(>4A\	-ta-	(>4c\	-ta-	(>4f#\	-ta-	2dd\	-ta-
4G\)	.	4B\)	.	4g\)	.	.	.
!	!	!	!	!	!	!LO:LB:g=original	!
=4	=4	=4	=4	=4	=4	=4	=4
2D\	-tis	1A	-tis	2f#X\	-tis	2dd\	-tis
2r	.	.	.	2r	.	2r	.
*	*	*	*	*	*	*	*
2r	.	2r	.	(>4f#\	lau-	(>4a\L	lau-
.	.	.	.	4g\)	.	4b\)J	.
!LO:LB:g=original	!	!LO:LB:g=original	!	!LO:LB:g=original	!	!	!
=5	=5	=5	=5	=5	=5	=5	=5
2D\	Lau-	2F#X/	lau-	(>4a\	-da-	(>4cc\L	-da-
.	.	.	.	4f#X\	.	4a\)J	.
2D\	-da-	2G/	-da-	2d\)	.	(>2b\	-mus
2D\	-mus	2F#/	-mus	2cn\	-mus	2a\)	.
=6	=6	=6	=6	=6	=6	=6	=6
2G\	te	2d\	te	2B/	te	2g\	te
2D\	be-	2d\	be-	2f#X\	be-	2a\	be-
4D\	-ne-	4d\	-ne-	(>4f#\	-ne-	(>4a\L	-ne-
4D\	-di-	4d\	-di-	4g\)	.	4b\)J	.
=7	=7	=7	=7	=7	=7	=7	=7
1D	-ci-	(<2F#X/	-ci-	(>4a\	-di-	(>4cc\L	-di-
.	.	.	.	4f#X\)	.	4a\)J	.
.	.	2G/	.	2d\	-ci-	2b\	-ci-
2D\	-mus	2F#/)	-mus	2c\	-mus	2a\	-mus
=8	=8	=8	=8	=8	=8	=8	=8
2G\	te	2D/	te	2B/	te	2g\	te
2F#X\	a-	2A/	a-	2d\	a-	2cc\	a-
2D\	-do-	2F#X/	-do-	2d\	-do-	2a\	-do-
=9	=9	=9	=9	=9	=9	=9	=9
4G\	-ra-	4G/	-ra-	4d\	-ra-	4b\	-ra-
4G\	-mus	4G/	-mus	4e\	-mus	4cc\	-mus
2G\	te	2G/	te	2d\	te	2b\	te
!	!	!	!	!	!	!LO:LB:g=original	!
2G\	glo-	2G/	glo-	2g\	glo-	2b\	glo-
!	!	!LO:LB:g=original	!	!	!	!	!
=10	=10	=10	=10	=10	=10	=10	=10
4E\	-ri-	4c\	-ri-	4e\	-ri-	4cc\	-ri-
4C\	-fi-	4e\	-fi-	4a\	-fi-	4cc\	-fi-
2D\	-ca-	2d\	-ca-	2g\	-ca-	2b\	-ca-
2D\	-mus	2d\	-mus	2f#X\	-mus	2a\	-mus
!LO:LB:g=original	!	!	!	!	!	!	!
=11	=11	=11	=11	=11	=11	=11	=11
1G	te.	1d	te	1g	te	1b	te
2r	.	2r	.	2r	.	2r	.
!	!	!	!	!LO:LB:g=original	!	!	!
=12||	=12||	=12|	=12|	=12||	=12||	=12||	=12||
(>4E\	Gra-	2.B\	gra-	2.g\	gra-	2.ee\	gra-
4G\)	.	.	.	.	.	.	.
(>4B\	-ti-	.	.	.	.	.	.
4G\)	.	4B\	-ti-	4g\	-ti-	4ee\	-ti-
2E\	-as	2B\	-as	2g\	-as	2ee\	-as
=13	=13	=13	=13	=13	=13	=13	=13
2.D#X\	a-	2.A\	a-	2.f#X\	a-	2.cc\	a-
4D#\	-gi-	4A\	-gi-	4f#\	-gi-	4cc\	-gi-
2E\	-mus	2B\	-mus	2g\	-mus	2b\	-mus
=14	=14	=14	=14	=14	=14	=14	=14
(>4E\	a-	2e\	a-	(>4g\	a-	(>4g\L	a-
4F#X\)	.	.	.	4f#X\)	.	4a\)J	.
(>4G\	-gi-	2e\	-gi-	(>4e\	-gi-	(>4b\L	-gi-
4F#\)	.	.	.	4f#\)	.	4a\)J	.
(>4G\	-mus	2e\	-mus	(>4e\	-mus	(>4b\L	-mus
4E\)	.	.	.	4g\)	.	4g\)J	.
!	!	!	!	!	!	!LO:LB:g=original	!
=15	=15	=15	=15	=15	=15	=15	=15
2B\	ti-	2d#X\	ti-	2f#X\	ti-	2b\	ti-
2BB/	-bi	2d#\	-bi	2f#\	-bi	2b\	-bi
2r	.	2r	.	2r	.	2r	.
!	!	!LO:LB:g=original	!	!	!	!	!
=16	=16	=16	=16	=16	=16	=16	=16
(>4c\	pro-	1d#X	pro-	(>4a\	pro-	1ff#X	pro-
4B\	.	.	.	4g\	.	.	.
4A\	.	.	.	4f#X\	.	.	.
4G\)	.	.	.	4e\)	.	.	.
(>4F#X\	-pter	2B\	-pter	(>4d#X\	-pter	2gg\	-pter
4E\)	.	.	.	4e\)	.	.	.
!LO:LB:g=original	!	!	!	!	!	!	!
=17	=17	=17	=17	=17	=17	=17	=17
1D	mag-	1A	ma-	1f#X	ma-	1b	ma-
2E\	-nam	2B\	-gnam	2g\	-gnam	2b\	-gnam
=18	=18	=18	=18	=18	=18	=18	=18
2.A\	glo-	2.d#X\	glo-	2.f#X\	glo-	2.cc\	glo-
4A\	-ri-	4d#\	-ri-	4f#\	-ri-	4cc\	-ri-
2G\	-am	2e\	-am	2g\	-am	2b\	-am
!	!	!	!	!LO:LB:g=original	!	!	!
=19	=19	=19	=19	=19	=19	=19	=19
(>2A\	tu-	(>2f#X\	tu-	(>2a\	tu-	(>2cc\	tu-
2B\	.	2e\	.	2g\	.	1b)	.
2BB/)	.	2d#X\)	.	2f#X\)	.	.	.
=20	=20	=20	=20	=20	=20	=20	=20
1E	-am	1e	-am	1g	-am	1b	-am
2r	.	2r	.	2r	.	2r	.
=21	=21	=21	=21	=21	=21	=21	=21
2.G\	Do-	2.G/	Do-	2.g\	Do-	2.b\	Do-
4A\	-mi-	4A/	-mi-	4g\	-mi-	4cc\	-mi-
2B\	-ne	2B\	-ne	2g\	-ne	2dd\	-ne
!	!	!	!	!	!	!LO:LB:g=original	!
=22	=22	=22	=22	=22	=22	=22	=22
2c\	De-	2c\	De-	2g\	De-	2ee\	De-
2B\	-us	2B\	-us	2g\	-us	2dd\	-us
2r	.	2r	.	2r	.	2r	.
!	!	!LO:LB:g=original	!	!	!	!	!
=23	=23	=23	=23	=23	=23	=23	=23
(>4B\	rex	(>4B\	rex	2g\	rex	(>4dd\L	rex
4G\)	.	4G\)	.	.	.	4b\)J	.
(>4c\	ce-	(>4c\	ce-	2g\	ce-	(>4ee\L	ce-
4B\)	.	4B\)	.	.	.	4dd\)J	.
(>4A\	-les-	(>4A\	-les-	(>4f#X\	-le-	(>4cc\L	-le-
4G\)	.	4G\)	.	4g\)	.	4b\)J	.
!LO:LB:g=original	!	!	!	!	!	!	!
=24	=24	=24	=24	=24	=24	=24	=24
2F\	-tis	2F#X/	-tis	2d\	-stis	2a\	-stis
2A\	De-	2A/	De-	2d\	De-	2cc\	De-
2F\	-us	2F#/	-us	2d\	-us	2a\	-us
=25	=25	=25	=25	=25	=25	=25	=25
(>2G\	pa-	(<2G/	pa-	(>2d\	pa-	(>2b\	pa-
2A\)	.	2A/)	.	2f#X\)	.	2cc\)	.
2B\	-ter	2B\	-ter	2g\	-ter	2dd\	-ter
=26	=26	=26	=26	=26	=26	=26	=26
(>4c\	om-	(>4c\	om-	2e\	om-	(>4ee\L	om-
4A\)	.	4A\)	.	.	.	4cc\)J	.
2G\	-ni-	2G/	-ni-	2d\	-ni-	2b\	-ni-
2F#X\	-po-	2F#X/	-po-	2d\	-po-	2a\	-po-
!	!	!	!	!LO:LB:g=original	!	!	!
=27	=27	=27	=27	=27	=27	=27	=27
2G\	-tens	2G/	-tens	2d\	-tens	2b\	-tens
!	!	!	!	!	!	!LO:LB:g=original	!
(>4G\	Do-	(>4B\	Do-	2g\	Do-	2b\	Do-
4B\)	.	4d\)	.	.	.	.	.
4A\	-mi-	4c\	-mi-	4f#X\	-mi-	4a\	-mi-
4G\	-ne	4B\	-ne	4g\	-ne	4b\	-ne
!	!	!LO:LB:g=original	!	!	!	!	!
=28	=28	=28	=28	=28	=28	=28	=28
(>4F#X\	fi-	(<4A/	fi-	1d	fi-	2a\	fi-
4E\)	.	4G/)	.	.	.	.	.
2D\	-li	2F#X/	-li	.	.	2a\	-li
4D\	fi-	4F#/	fi-	2d\	-li	4a\	fi-
!LO:TX:a:t=P:problem=w źródle ta adnotacja zapisana za taktem 28, na pięciolinii	!	!	!	!	!	!	!
!LO:TX:a:i:t=V&colon; S&colon;	!	!	!	!	!	!	!
4E\	-li	4G/	-li	.	.	4a\	-li
!LO:PB:g=original	!	!	!	!	!	!	!
=29	=29	=29	=29	=29	=29	=29	=29
(>4F#X\	u-	(>4A\	u-	1d	u-	1a	u-
4G\	.	4B\	.	.	.	.	.
4A\	.	4c\	.	.	.	.	.
4G\)	.	4B\)	.	.	.	.	.
(>4A\	-ni-	(>4c\	-ni-	2d\	-ni-	2a\	-ni-
4F#\)	.	4A\)	.	.	.	.	.
=30	=30	=30	=30	=30	=30	=30	=30
2.G\	ge-	2.B\	ge-	2.d\	ge-	2.b\	ge-
4D\	-ni-	4c\	-ni-	4f#X\	-ni-	4a\	-ni-
2GG/	-te	2d\	-te	2g\	-te	2g\	-te
=31	=31	=31	=31	=31	=31	=31	=31
(>4c\	Je-	4e\	Je-	1.g	Je-	(>1.ee	Je-
4B\	.	4d\	.	.	.	.	.
4A\	.	4c\	.	.	.	.	.
4G\)	.	4B\	.	.	.	.	.
(>4F#X\	-su	4A\	.	.	.	.	.
4E\)	.	4G\	.	.	.	.	.
=32	=32	=32	=32	=32	=32	=32	=32
(>2D\	Je-	2F#X/	.	2a\	.	1cc)	.
4E\	.	4G/	.	2f#X\	.	.	.
4F#X\)	.	4A/	.	.	.	.	.
!	!	!LO:TX:a:t=P:problem=w źródle ta adnotacja zapisana za taktem 32, na pięciolinii	!	!	!	!	!
!	!	!LO:TX:a:i:t=V&colon; S&colon;	!	!	!	!	!
2G\	-su	2B\	-su	2g\	-su	2dd\	-su
!	!	!LO:PB:g=original	!	!	!	!LO:LB:g=original	!
=33	=33	=33	=33	=33	=33	=33	=33
(>2C/	Chri-	2A\	Chri-	(>2f#X\	Chri-	(>2cc\	Chri-
1D)	.	2B\	.	2g\	.	1dd)	.
.	.	2A\	.	2f#\)	.	.	.
=34	=34	=34	=34	=34	=34	=34	=34
2GG/	-ste	2B\	-ste	2g\	-ste	2dd\	-ste
2Fn\	Do-	2B\	Do-	2g\	Do-	2dd\	Do-
4F\	-mi-	4B\	-mi-	4g\	-mi-	4dd\	-mi-
4F\	-ne	4B\	-ne	4g\	-ne	4dd\	-ne
!LO:LB:g=original	!	!	!	!LO:LB:g=original	!	!	!
=35	=35	=35	=35	=35	=35	=35	=35
(>2.E\	De-	2.c\	De-	(>2.g\	De-	(>2.cc\	De-
4D\)	.	4B\	.	4fn\)	.	4dd\)	.
2C/	-us	2c\	-us	2g\	-us	2ee\	-us
=36	=36	=36	=36	=36	=36	=36	=36
(<4C/	a-	(>4c\	a-	1g	a-	(>4ee\L	a-
4BB/	.	4d\	.	.	.	4dd\	.
4C/	.	4e\	.	.	.	4cc\	.
4D/)	.	4d\)	.	.	.	4b\)J	.
(>4E\	-gnus	(>4c\	-gnus	2g\	-gnus	(>4cc\L	-gnus
4F\)	.	4B\)	.	.	.	4dd\)J	.
=37	=37	=37	=37	=37	=37	=37	=37
2G\	De-	2G/	De-	2d\	De-	2b\	De-
2GG/	-i	2G/	-i	2d\	-i	2b\	-i
4B\	fi-	4G/	fi-	4fn\	fi-	4dd\	fi-
8A\	-li-	8A\	-li-	8f\	-li-	8cc\	-li-
8G\	-us	8B\	-us	8f\	-us	8b\	-us
!	!	!LO:LB:g=original	!	!	!	!LO:LB:g=original	!
=38	=38	=38	=38	=38	=38	=38	=38
(>4c\	pa-	2c\	pa-	2.g\	pa-	2.ee\	pa-
4G\	.	.	.	.	.	.	.
4E\	.	1G	.	.	.	.	.
4F\	.	.	.	4f\	.	4dd\L	.
4G\)	.	.	.	4e\	.	4cc\	.
4GG/	.	.	.	4d\	.	4b\J	.
=39	=39	=39	=39	=39	=39	=39	=39
2C/	-tris	2G/	-tris	2e\	-tris.	2cc\	-tris
2r	.	2r	.	2r	.	2r	.
2A\	qui	2c\	qui	2r	.	2ee\	qui
=40	=40	=40	=40	=40	=40	=40	=40
!	!	!	!	!LO:TX:a:t=4	!	!	!
!	!	!	!	!LO:N:vis=00	!	!	!
2A\	tol-	2c\	tol-	00.r	.	2ee\	tol-
2A\	-lis	4c\	-lis	.	.	4ee\	-lis
.	.	4B\	pe-	.	.	4dd\	pec-
2E\	pec-	4A\	-ca-	.	.	4cc\	-ca-
.	.	4G#X/	-ta	.	.	4b\	-ta
8qqC/	.	.	.	.	.	.	.
!LO:LB:g=original	!	!	!	!	!	!	!
=41	=41	=41	=41	=41	=41	=41	=41
2AA/	-ca-	(>4A\	mun-	.	.	(>4cc\L	mun-
.	.	4B\)	.	.	.	4b\)J	.
2AA/	-ta	2c\	-di	.	.	2a\	-di
2A\	pec-	2c\	pe-	.	.	2ee\	pec-
=42	=42	=42	=42	=42	=42	=42	=42
(>2A\	-ca-	2c\	-ca-	.	.	(>2ee\	-ca-
2G#X\)	.	2B\	.	.	.	2dd\)	.
2A\	-ta	2A\	-ta	.	.	2cc\	-ta
!	!	!	!	!	!	!LO:LB:g=original	!
=43	=43	=43	=43	=43	=43	=43	=43
2E\	mun-	2A/	mun-	.	.	2cc\	mun-
2E\	-di	2G#X/	-di	.	.	2b\	-di
!	!	!	!	!LO:TX:a:t=P:problem=w źródle ta adnotacja zapisana za taktem 43, na pięciolinii	!	!	!
!	!	!	!	!LO:TX:a:i:t=V&colon; S&colon;	!	!	!
2r	.	2r	.	.	.	2r	.
!	!	!LO:LB:g=original	!	!LO:PB:g=original	!	!	!
=44	=44	=44	=44	=44	=44	=44	=44
1D	mi-	1G#X	mi-	1fn	mi-	1b	mi-
2D\	-se-	2G#/	-se-	2f\	-se-	2b\	-se-
=45	=45	=45	=45	=45	=45	=45	=45
(<2C/	-re-	2A\	-re-	(>2e\	-re-	(>2a\	-re-
2BB/)	.	2B\	.	2d\)	.	2g#X\)	.
2AA/	-re	2c\	-re	2e\	-re	2a\	-re
=46	=46	=46	=46	=46	=46	=46	=46
(>2D\	no-	2d\	no-	(>2f\	no-	(>2b\	no-
1E)	.	2c\	.	1e)	.	2a\	.
.	.	2B\	.	.	.	2g#X\)	.
=47	=47	=47	=47	=47	=47	=47	=47
2AA/	-bis	2c\	-bis	2e\	-bis	2a\	-bis
2r	.	2r	.	2r	.	2r	.
2AA/	qui	4c\	qui	2e\	qui	(>4ee\L	qui
.	.	4A\	.	.	.	4cc\)J	.
!LO:LB:g=original	!	!	!	!	!	!	!
=48	=48	=48	=48	=48	=48	=48	=48
2E\	tol-	2G#X/	tol-	2e\	tol-	2b\	tol-
2E\	-lis	2G#/	-lis	2e\	-lis	2b\	-lis
!	!	!	!	!	!	!LO:TX:a:t=P:problem=w źródle ta adnotacja zapisana za taktem 48, na pięciolinii	!
!	!	!	!	!	!	!LO:TX:b:i:t=V&colon; S&colon;	!
2A\	pec-	2A/	pe-	2e\	pec-	2cc\	pec-
!	!	!	!	!	!	!LO:PB:g=original	!
=49	=49	=49	=49	=49	=49	=49	=49
1G#X	-ca-	1B	-ca-	1e	-ca-	1dd	-ca-
2A\	-ta	2A\	-ta	2e\	-ta	2cc\	-ta
=50	=50	=50	=50	=50	=50	=50	=50
2E\	mun-	2A/	mun-	2e\	mun-	2cc\	mun-
2E\	-di	2G#X/	-di	2e\	-di	2b\	-di
2r	.	2r	.	2r	.	2r	.
!	!	!LO:LB:g=original	!	!	!	!	!
=51	=51	=51	=51	=51	=51	=51	=51
2c\	sus-	2.c\	sus-	2.g\	sus-	2.ee\	sus-
(>4G\	-ci-	.	.	.	.	.	.
4E\)	.	4c\	-ci-	4g\	-ci-	4ee\	-ci-
2C/	-pe	2c\	-pe	2g\	-pe	2ee\	-pe
!	!	!	!	!LO:LB:g=original	!	!	!
=52	=52	=52	=52	=52	=52	=52	=52
1G	de-	2B\	de-	(>2f\	de-	(>2dd\	de-
.	.	2Gn/	.	2e\)	.	2cc\)	.
2G\	-pre-	2G/	-pre-	2d\	-pre-	2b\	-pre-
=53	=53	=53	=53	=53	=53	=53	=53
2E\	-ca-	2G/	-ca-	2e\	-ca-	2cc\	-ca-
2D\	-ti-	2B\	-ti-	2f\	-ti-	2dd\	-ti-
2C/	-o-	2c\	-o-	2g\	-o-	2ee\	-o-
=54	=54	=54	=54	=54	=54	=54	=54
2F\	-nem	2A\	-nem	2f\	-nem	2dd\	-nem
1G	no-	1G	no-	(>2e\	no-	(>2cc\	no-
.	.	.	.	2d\)	.	2b\)	.
!LO:LB:g=original	!	!	!	!	!	!	!
=55	=55	=55	=55	=55	=55	=55	=55
2C/	-stram	2G/	-stram	2e\	-stram	2cc\	-stram
2r	.	2r	.	2r	.	2r	.
!	!	!	!	!	!	!LO:LB:g=original	!
2G\	qui	2G/	qui	(>4d\	qui	(>4b\L	qui
.	.	.	.	4e\)	.	4cc\)J	.
=56	=56	=56	=56	=56	=56	=56	=56
2G\	se-	2B\	se-	(>4f\	se-	(>4dd\L	se-
.	.	.	.	4e\)	.	4cc\)J	.
2G\	-des	2B\	-des	2f\	-des	2dd\	-des
2G\	ad	2G/	ad	2d\	ad	2b\	ad
=57	=57	=57	=57	=57	=57	=57	=57
2.C/	dex-	2.c\	dex-	2.g\	dex-	2.ee\	dex-
!	!	!LO:SIC:v:l:s=-te-	!	!	!	!	!
4D/	-te-	4B\	-e-	4f\	-te-	4dd\	-te-
(>4E\	-ram	2G/	-ram	2e\	-ram	2cc\	-ram
4F\)	.	.	.	.	.	.	.
!	!	!LO:LB:g=original	!	!	!	!	!
=58	=58	=58	=58	=58	=58	=58	=58
2G\	pa-	2G/	pa-	2e\	pa-	2cc\	pa-
2G\	-tris	2G/	-tris	2d\	-tris	2b\	-tris
2r	.	2r	.	2r	.	2r	.
!	!	!	!	!LO:LB:g=original	!	!	!
=59	=59	=59	=59	=59	=59	=59	=59
1A	mi-	1A	mi-	1f	mi-	1cc	mi-
2G\	-se-	2c\	-se-	2e\	-se-	2cc\	-se-
=60	=60	=60	=60	=60	=60	=60	=60
1F	-re-	1G	-re-	1d	-re-	1b	-re-
2E\	-re	2c\	-re	2c\	-re	2g\	-re
=61	=61	=61	=61	=61	=61	=61	=61
(>2F\	no-	1.G	no-	(>2d\	no-	(>2b\	no-
2G\	.	.	.	2e\	.	2cc\	.
2GG/)	.	.	.	2d\)	.	2b\)	.
!LO:LB:g=original	!	!	!	!	!	!LO:LB:g=original	!
=62	=62	=62	=62	=62	=62	=62	=62
1C	-bis	1G	-bis	1e	-bis	1cc	-bis
2r	.	2r	.	2r	.	2r	.
=63||	=63||	=63||	=63||	=63||	=63||	=63||	=63||
4C\	Quo-	4G/	Quo-	4g\	Quo-	4ee\	Quo-
4D\	-ni-	4G/	-ni-	4f\	-ni-	4dd\	-ni-
4E\	-am	4G/	-am	4e\	-am	4cc\	-am
4F\	tu	4G/	tu	4d\	tu	4b\	tu
4E\	so-	4G/	so-	4e\	so-	4cc\	so-
4D\	-lus	4G/	-lus	4f\	-lus	4dd\	-lus
=64	=64	=64	=64	=64	=64	=64	=64
(>4C\	san-	2G/	san-	2e\	san-	2cc\	san-
4E\)	.	.	.	.	.	.	.
2G\	-ctus	2G/	-ctus	2d\	-ctus	2b\	-ctus
!	!	!LO:LB:g=original	!	!	!	!	!
2G\	tu	2G/	tu	(>4d\	tu	(>4cc\L	tu
.	.	.	.	4e\)	.	4dd\)J	.
=65	=65	=65	=65	=65	=65	=65	=65
(>2G\	so-	2B\	so-	(>4f\	so-	(>4dd\L	so-
.	.	.	.	4e\	.	4cc\	.
2B\)	.	2G/	.	4f\	.	4dd\	.
.	.	.	.	4a\)	.	4ff\)J	.
2G\	-lus	2B\	-lus	(>4g\	-lus	(>4ee\L	-lus
.	.	.	.	4f\)	.	4dd\)J	.
!	!	!	!	!LO:LB:g=original	!	!LO:LB:g=original	!
=66	=66	=66	=66	=66	=66	=66	=66
4c\	Do-	4G/	Do-	4f\	Do-	4dd\	Do-
4G\	-mi-	4G/	-mi-	4e\	-mi-	4cc\	-mi-
2C/	-nus	2G/	-nus	2e\	-nus	2cc\	-nus
2C/	tu	2c\	tu	2g\	tu	2ee\	tu
!LO:LB:g=original	!	!	!	!	!	!	!
=67	=67	=67	=67	=67	=67	=67	=67
2C/	so-	2c\	so-	2g\	so-	2ee\	so-
4C/	-lus	4c\	-lus	4a\	-lus	4ff\	-lus
!LO:N:vis=8	!	!	!	!	!	!	!
4E\	al-	4c\	al-	4g\	al-	4ee\	al-
4F\	-tis-	4B\	-tiſ-	4f\	-tis-	4dd\	-tis-
4F#X\	-si-	4c\	-si-	4e\	-si-	4cc\	-si-
=68	=68	=68	=68	=68	=68	=68	=68
1G	-mus	1G	-mus	1d	-mus	1b	-mus
2r	.	2r	.	2r	.	2r	.
=69	=69	=69	=69	=69	=69	=69	=69
(>4G\	Je-	1B	Je-	1f	Je-	1dd	Je-
4A\	.	.	.	.	.	.	.
4B\	.	.	.	.	.	.	.
4G\)	.	.	.	.	.	.	.
2c\	-su	2G/	-su	2e\	-su	2cc\	-su
!	!	!LO:LB:g=original	!	!	!	!	!
=70	=70	=70	=70	=70	=70	=70	=70
(>2F\	Chri-	2A/	Chri-	(>2d\	chri-	(>2a\	Chri-
2G\)	.	1G	.	2e\	.	2cc\	.
2GG/	.	.	.	2d\)	.	2b\)	.
!	!	!	!	!	!	!LO:LB:g=original	!
=71	=71	=71	=71	=71	=71	=71	=71
2C/	-ste	2G/	-ste	2e\	-ste	2cc\	-ste
2r	.	2r	.	2r	.	2r	.
2G\	cum	2G/	cum	2d\	cum	2b\	cum
!LO:LB:g=original	!	!	!	!	!	!	!
=72	=72	=72	=72	=72	=72	=72	=72
(>4C\	san-	1G	san-	(>4e\	san-	1cc	san-
4D\	.	.	.	4f\	.	.	.
4E\	.	.	.	4g\	.	.	.
4D\)	.	.	.	4f\)	.	.	.
(>4E\	-cto	2G/	-cto	(>4g\	-cto	2cc\	-cto
4C\)	.	.	.	4e\)	.	.	.
!	!	!	!	!LO:LB:g=original	!	!	!
=73	=73	=73	=73	=73	=73	=73	=73
2.G\	spi-	2.B\	spi-	2.d\	spi-	2.b\	spi-
4A\	-ri-	4B\	-ri-	4d\	-ri-	4b\	-ri-
4B\	-tu	4B\	-tu	4d\	-tu	4b\	-tu
4G\	in	4B\	in	4d\	in	4b\	in
=74	=74	=74	=74	=74	=74	=74	=74
(>4G\	glo-	(>4B\	glo-	2.f\	glo-	2.dd\	glo-
4A\)	.	4c\)	.	.	.	.	.
(>4B\	-ri-	(>4d\	-ri-	.	.	.	.
4A\)	.	4c\)	.	4f\	-ri-	4dd\	-ri-
(>4B\	-a	(>4d\	-a	2f\	-a	2dd\	-a
4G\)	.	4B\)	.	.	.	.	.
=75	=75	=75	=75	=75	=75	=75	=75
(>4C\	De-	1G	De-	(>4e\	De-	(>4cc\L	De-
4D\	.	.	.	4f\	.	4b\	.
4E\	.	.	.	4g\	.	4cc\	.
4F\)	.	.	.	4f\)	.	4b\)J	.
(>4E\	-i	2G/	-i	(>4e\	-i	(>4cc\L	-i
4D\)	.	.	.	4d\)	.	4b\)J	.
!	!	!LO:LB:g=original	!	!	!	!LO:LB:g=original	!
=76	=76	=76	=76	=76	=76	=76	=76
1C	Pa-	2G/	pa-	(>2e\	pa-	(>2cc\	pa-
.	.	2A/	.	2a\)	.	2ff\)	.
2C\	-tris	2c\	-tris	2g\	-tris	2ee\	-tris
!LO:LB:g=original	!	!	!	!	!	!	!
=77	=77	=77	=77	=77	=77	=77	=77
(>2F\	a-	2A/	a-	(>2f\	a-	(>2dd\	a-
2G\)	.	1G	.	2e\	.	2cc\	.
2GG/	.	.	.	2d\)	.	2b\)	.
=78	=78	=78	=78	=78	=78	=78	=78
1C	-men	1G	-men	1e	-men	1cc	-men
2G\	a-	2G/	a-	2d\	a-	2b\	a-
=79	=79	=79	=79	=79	=79	=79	=79
1.C	-men.	1.G	-men.	1.e	-men.	1.cc	-men.
==	==	==	==	==	==	==	==
*-	*-	*-	*-	*-	*-	*-	*-
!!!system-decoration: [(s1,s2,s3,s4)]
!!!RDF**kern: > = above
!!!RDF**kern: < = below
!!!EED: Antoni Szymański
!!!EEV: 2021-02-01
!!!ENC: Andrzej Gręziak
!!!END: 2021-01-27
